X:465
T:Dan Sullivan's favourite
R:Hornpipe
O:Ireland
P:APB Sean Ryan
D:Sean Ryan: Take the Air
S:Sean Ryan: Take the Air
Z:Transcription:?, chords:Mike Long
M:4/4
L:1/8
K:G
"G"~G2DG BAGF|GA (3(Bcd) ~g2 g2|"G"gd (3(Bcd) "C"ecAG|"D"(3(EFG) AB (3(cBA) dB|
"G"~G2DG BAGF|GA (3(Bcd) g2 zf|"G"gd (3(Bcd) "C"ec"D"AF|[1 "G"GB"D"AF "G"G2z2:|[2 "G"GB"D"AF "G"G2FG|]
K:D
|:"D"ABAG FAde|fedc d2zd|"A"eA~A2 "G"gfed|"A"eA~A2 "G"gfed|\
"D"ABAG FAde|
fedc d2fg|"G"(3(aba) (3(gag) "A"(3(fgf) (3(efe)|\
[1 "D"df"A"ec "D"d2z2:|[2 "D"(3(ded) (3(cdc) "A"(3(BcB) (3(ABA)|]
